!!!COM:	Bach, Johann Sebastian
!!!OMV:	Herr Jesu Christ, du h&ouml;chstes Gut
!!!OTL:	Herr Jesu Christ, du h&ouml;chstes Gut
**kern	**fb	**kern	**kern	**kern	**kern
*part5	*part5	*part4	*part3	*part2	*part1
*staff5	*	*staff4	*staff3	*staff2	*staff1
*I"Continuo	*	*I"Voice	*I"Voice	*I"Voice	*I"Voice
*I'Cont.	*	*I'V	*I'V	*I'V	*I'V
*clefF4	*	*clefF4	*clefGv2	*clefG2	*clefG2
*Trd0c0	*	*	*	*	*
*k[f#c#]	*	*k[f#c#]	*k[f#c#]	*k[f#c#]	*k[f#c#]
*M4/4	*	*M4/4	*M4/4	*M4/4	*M4/4
8BL	.	8BL	4d	4f#	4b
8AJ	.	8AJ	.	.	.
=2	=2	=2	=2	=2	=2
4G	6	4G	8c#L	4e	4b
.	.	.	8BJ	.	.
8F#L	#	8F#L	4c#	4f#	4a#X
8EJ	.	8EJ	.	.	.
4D	6	4D	4d	4f#	4b
4C#	#5\	4C#	4e	8g#XL	4cc#
.	#6\	.	.	8a#XJ	.
=3	=3	=3	=3	=3	=3
4BB	.	4BB	4.f#	4b	4dd
4FF#	#	4FF#	.	4a#X	4cc#
.	.	.	8e	.	.
4BB;	.	4BB;	4d;	4f#;	4b;
4B	5	4B	4d	8f#L	4b
.	#6\	.	.	8g#XJ	.
=4	=4	=4	=4	=4	=4
8AL	.	8AL	4e	4an	4cc#
8GJ	.	8GnJ	.	.	.
8F#L	5	8F#L	4A	8aL	4cc#
8EJ	.	8EJ	.	8gnJ	.
4.D	5 3	4.D	8dL	4f#	4ff#
.	.	.	8c#J	.	.
.	6 #4| 2	.	8BL	8g#XL	4ee
8C#	#6\	8C#	8c#J	8a#XJ	.
=	=	=	=	=	=
8BBL	.	8BBL	8dL	2b	2dd
8C#	.	8C#	8eJ	.	.
8D	.	8D	4f#	.	.
8EJ	.	8EJ	.	.	.
4F#;	#	4F#;	4f#;	4a#X;	4cc#;
=5:|!	=5:|!	=5:|!	=5:|!	=5:|!	=5:|!
4D	.	4D	8AL	4an	4ff#
.	.	.	8BJ	.	.
=6	=6	=6	=6	=6	=6
!!linebreak:original
4A	5	4A	4c#	8aL	4ee
.	.	.	.	8gJ	.
4B	5	4B	8dL	8f#L	4dd
.	#6\	.	8eJ	8g#XJ	.
4F#	5 #	4F#	4f#	8a#XL	8cc#L
.	6 4	.	.	8bJ	8ddJ
8EL	.	8EL	4gn	4cc#	4ee
8F#J	.	8F#J	.	.	.
=7	=7	=7	=7	=7	=7
8GL	.	8GL	4f#	4b	4dd
8EJ	7 5	8EJ	.	.	.
4F#	#	4F#	8c#L	4a#X	4cc#
.	.	.	8eJ	.	.
4BB;	.	4BB;	4d;	4f#;	4b;
4B	5	4B	4d	8f#L	4dd
.	#6\	.	.	8g#XJ	.
=8	=8	=8	=8	=8	=8
4A	.	4A	8eL	4.an	4cc#
.	.	.	8EJ	.	.
8D#XL	6 5	8D#XL	8F#L	.	4b
8E#XJ	6 5	8E#XJ	8G#XJ	8g#X	.
4F#	.	4F#	8AL	8f#L	8aL
.	.	.	8BJ	8e#XJ	8g#XJ
4FF#	.	4FF#	8AL	4f#	8f#L
.	.	.	8G#J	.	8g#J
=9	=9	=9	=9	=9	=9
8F#L	5	8F#L	4.F#	4c#	8aL
8EJ	.	8EnJ	.	.	8bJ
8DL	6 5	8DL	.	8f#L	4b
8EJ	#	8EJ	8G#X	8eJ	.
4AA;	.	4AA;	4A;	4e;	4cc#;
4AA#X	6	4AA#X	4c#	4f#	4cc#
=10	=10	=10	=10	=10	=10
!!pagebreak:original
4BB	5	4BB	8BL	8f#L	4dd
.	#6\	.	8f#J	8bJ	.
4C#	6	4C#	4e	8aL	4ee
.	.	.	.	8gnJ	.
4D	.	4D	4.d	4f#	4.ff#
8EL	9 #	8EL	.	8g#XL	.
8F#J	7 #	8F#J	8c#	8a#XJ	8ee
=11	=11	=11	=11	=11	=11
8GL	5	8GnL	4B	8bL	4dd
8F#J	.	8F#J	.	8anJ	.
4E	6	4E	8c#L	4gn	4ee
.	5	.	8BJ	.	.
4F#	#	4F#	8A#XL	2f#	2cc#
.	.	.	8c#J	.	.
4FF#	.	4FF#	4e	.	.
=12	=12	=12	=12	=12	=12
!!linebreak:original
2.BB;	.	2.BB;	2.d#X;	2.f#;	2.b;
=||	=||	=||	=||	=||	=||
*-	*-	*-	*-	*-	*-
!!!system-decoration: s1,s2,s3,s4,s5
